src/assets/logo.svg

<svg width="488" height="424" viewBox="0 0 488 424" fill="none" xmlns="http://www.w3.org/2000/svg">
<path d="M249.126 95.017L151.843 263.694L243.959 423.473L365.966 211.973L487.918 0.473206H303.629L249.126 95.017Z" fill="#1697F6"/>
<path d="M122.007 211.973L128.396 223.096L219.402 65.2635L256.793 0.473206H243.959H0L122.007 211.973Z" fill="#AEDDFF"/>
<path d="M303.629 0.473206C349.743 152.355 243.959 423.473 243.959 423.473L151.843 263.694L303.629 0.473206Z" fill="#1867C0"/>
<path d="M256.793 0.473206C62.5042 0.473206 128.397 223.096 128.397 223.096L256.793 0.473206Z" fill="#7BC6FF"/>
</svg>

<svg width="488" height="424" fill="none" xmlns="http://www.w3.org/2000/svg"><path d="M249.126 95.017l-97.283 168.677 92.116 159.779 122.007-211.5L487.918.473H303.629l-54.503 94.544z" fill="#1697F6"/><path d="M122.007 211.973l6.389 11.123 91.006-157.833L256.793.473H0l122.007 211.5z" fill="#AEDDFF"/><path d="M303.629.473c46.114 151.882-59.67 423-59.67 423l-92.116-159.779L303.629.474z" fill="#1867C0"/><path d="M256.793.473c-194.289 0-128.396 222.623-128.396 222.623L256.793.473z" fill="#7BC6FF"/></svg>
